svgs/sharp-regular/person-dress.svg

<svg xmlns="http://www.w3.org/2000/svg" viewBox="0 0 320 512"><!--! Font Awesome Pro 6.6.0 by @fontawesome - https://fontawesome.com License - https://fontawesome.com/license (Commercial License) Copyright 2024 Fonticons, Inc. --><path d="M112 48a48 48 0 1 1 96 0 48 48 0 1 1 -96 0zM94.8 128l14.1 0 19.1 0 64 0 19.1 0 14.1 0 6.9 12.4 75.3 136 11.6 21-42 23.3-11.6-21L220 217.7 257 336l15 48-48 0 0 104 0 24-48 0 0-24 0-104-32 0 0 104 0 24-48 0 0-24 0-104-48 0 15-48 37-118.3L54.6 299.6 43 320.6 1 297.4l11.6-21 75.3-136L94.8 128zM206.7 336L160 186.5 113.3 336l93.4 0z"/></svg>

<svg xmlns="http://www.w3.org/2000/svg" viewBox="0 0 320 512"><!--! Font Awesome Pro 6.4.0 by @fontawesome - https://fontawesome.com License - https://fontawesome.com/license (Commercial License) Copyright 2023 Fonticons, Inc. --><path d="M112 48a48 48 0 1 1 96 0 48 48 0 1 1 -96 0zM94.8 128h14.1H128h64 19.1 14.1l6.9 12.4 75.3 136 11.6 21-42 23.3-11.6-21L220 217.7 257 336l15 48H224V488v24H176V488 384H144V488v24H96V488 384H48l15-48 37-118.3L54.6 299.6 43 320.6 1 297.4l11.6-21 75.3-136L94.8 128zM206.7 336L160 186.5 113.3 336h93.4z"/></svg>
